!!!OTL@@DE: Ach, wie flieht das Leben so geschwind!
!!!COM: Andr&eacute;, Anton
!!!ODT: 1810
!!!OMD: M&auml;ssig bewegt
!!!LYR: Rudolphi, Karoline
!!!LDT: 1787
!!!OCL: Erk, Ludwig
!!!GCO: Deutscher Liederschatz, Band 3
**kern	**kern	**kern
*staff3	*staff2	*staff1
*Ipiano	*Ipiano	*Ivox
=1-	=1-	=1-
*clefF4	*clefG2	*clefG2
*k[f#c#g#]	*k[f#c#g#]	*k[f#c#g#]
*A:	*A:	*A:
*M2/4	*M2/4	*M2/4
*MM96	*MM96	*MM96
*^	*^	*
8G#/L	4C#\	8cc#/L	4e\	8cc#\
8A/	.	8cc#/	.	8cc#\
8d/	4D\	8b/	4f#\	8b\
8c#/J	.	8a/J	.	8a/
=2	=2	=2	=2	=2
4B/	4E\	4g#/	4d\	4g#/
4A/	4AA\	4a/	4c#\	4a/
=3	=3	=3	=3	=3
4c#^/	4F#^\	4a^/	4f#^\	4a^/
4F#^/	4D^\	4b^/	4f#^\	4b^\
=4	=4	=4	=4	=4
2G#^/	2C#^\	2cc#^/	2e#^\	2cc#^\
*v	*v	*	*	*
=5	=5	=5	=5
8A/	8cc#/L	8en\L	8cc#\
*^	*	*	*
4E/	8AA\L	8cc#/	8c#\	8cc#\
.	8BB\	8b/	8d\	8b\
8A/	8C#\J	8a/J	8e\J	8a/
=6	=6	=6	=6	=6
8B/L	4D\	8g#/L	8e\L	8g#/
8G#/J	.	8e/J	8e\J	8e/
4A/	8C#\L	8a/L	8e\L	8a/
.	8E\J	8e/J	8c#\J	8e/
=7	=7	=7	=7	=7
8E/	4GG#\	8b/L	8d\L	8b\
4E/	.	8e/	8d\	8e/
.	4AA\	8cc#/	8c#\	8cc#\
8A/	.	8e/J	8c#\J	8e/
=8	=8	=8	=8	=8
4E^/ 4G#^/	4BB^\	4dd^/	4e^\	4dd\
4E^/ 4A^/	4C#^\	4cc#^/	4e^\	4cc#\
=9	=9	=9	=9	=9
8B/L	8D\L	8b/L	8d\L	8b\
8B/	8D\ 8F#\J	8b/J	8d\	8b\
8G#/ 8B/	8E\L	16b/LL	8d\	16b/LL
.	.	16a/	.	16a/JJ
8G#/J	8E\J	16b/	8d\J	16b\LL
.	.	16cc#/JJ	.	16cc#\JJ
=10	=10	=10	=10	=10
4E/ 4A/	4AA\	4a/	4c#\	4a/
*	*	*v	*v	*
8E'/ 8G#'/L	8BB'\L	8e'/ 8b'/ 8dd'/L	8dd\
8E'/ 8A'/J	8C#'\J	8e'/ 8a'/ 8cc#'/J	8cc#\
=11	=11	=11	=11
4F#^/ 4B^/	4D^\	4d^/ 4f#^/ 4b^/	4b^\
4G#^/ 4B^/	4E^\	4d^/ 4e^/ 4g#^/	4g#^/
=12	=12	=12	=12
4E/ 4A/	4AA\	4c#/ 4e/ 4a/	4a/
*v	*v	*	*
4r;	4r;	4r;
==	==	==
*-	*-	*-
!!!ENC: Craig Stuart Sapp
!!!END: 2004/05/20/
!!!EFL: 403/600
